X:62
T:March in Bluebeard.2voices. HSJJ.064
M:2/4
L:1/8
Q:1/4=100
S:HSJ Jackson,Wyresdale,Lancs.1823
R:.March
O:England
A:Lancashire
H:1823
Z:vmp.Chris Partington.
K:D
[V:1]a>gfe|d2e2|f/e/f/g/ af|”sic”ee>ee|a>gfe|d2e2|f/e/f/g/ fe|dd>dd:|!
[V:2]f>edc|B2F2|ddcd|cc>cc|f>edc|f2e2|ddcc|d2d2:|!
%
[V:1]|:e>dcd|e2f2|g>abg|ee>ee|e>dcd|ee>ef|.e.d.c.B|AA>AA|!
[V:2]|:cccB|c2d2|c>cBc|G>GGG|c>Bcd|cc>cc|.c.B.A.G|FF>FF|!
%
[V:1]a>gfe|d2e2|f/e/f/g/ af|ee>ee|a>gfe|d2e2|f/e/f/g/ fe|dd>dd:|
[V:2]f>edc|d2e2|d/c/d/e/ fd|cc>cc|f>edc|d2e2|ddAA|dd>dd:|

